!!!COM: Beethoven, Ludwig van
!!!CDT: 1770///-1827///
!!!OTL: Piano Sonata no. 15 in D major
!!!OTP: pastoral
!!!OPS: 28
!!!OMV: 3
!!!OMD: Scherzo: Allego vivace
**kern	**kern	**dynam
*staff2	*staff1	*staff1/2
*Ipiano	*Ipiano	*Ipiano
*>[A,B,B,C,C,D,A,B]	*>[A,B,B,C,C,D,A,B]	*>[A,B,B,C,C,D,A,B]
*>norep[A,B,C,D,A,B]	*>norep[A,B,C,D,A,B]	*>norep[A,B,C,D,A,B]
*>A	*>A	*>A
*clefF4	*clefG2	*clefG2
*k[f#c#]	*k[f#c#]	*k[f#c#]
*D:	*D:	*D:
*M3/4	*M3/4	*M3/4
*MM220	*MM220	*MM220
=1-	=1-	=1-
*	*^	*
2.r	2.ff#/	([2.ff#\	p
=2	=2	=2	=2
2.r	2.ff#/]	2.f#\)	.
*	*v	*v	*
=3	=3	=3
*^	*	*
2.F#/	([2.F#\	2.r	p
=4	=4	=4	=4
2.F#/]	2.FF#\)	2.r	.
*v	*v	*	*
=5	=5	=5
4D''\ 4F#''\	(8a/L	.
.	8f#/J)	.
4D''\ 4F#''\	4d''/	.
4r	4r	.
=6	=6	=6
4GG''/ 4BB''/ 4E''/	(8b/L	.
.	8g/J)	.
4GG''/ 4BB''/ 4E''/	4e''/	.
4r	4r	.
=7	=7	=7
4AA''\ 4E''\ 4G''\	(8g/L	.
.	8e/J)	.
4AA''\ 4E''\ 4G''\	4c#''/	.
4r	4r	.
=8	=8	=8
4D''\ 4F#''\	4d/	.
4D''\ 4F#''\	4d''/	.
4r	4r	.
=9	=9	=9
*	*^	*
2.r	2.aa/	([2.aa\	.
=10	=10	=10	=10
2.r	2.aa/]	2.a\)	.
*	*v	*v	*
=11	=11	=11
*^	*	*
[2.A/	(2.A\	2.r	.
=12	=12	=12	=12
2.A/]	2.AA\)	2.r	.
*v	*v	*	*
=13	=13	=13
4C#''\ 4E''\ 4A''\	(8ee\L	.
.	8cc#\J)	.
4C#''\ 4E''\ 4A''\	4a''/	.
4r	4r	.
=14	=14	=14
4D''\ 4F#''\ 4B''\	(8ff#\L	.
.	8dd\J)	.
4D''\ 4F#''\ 4B''\	4b''\	.
4r	4r	.
=15	=15	=15
4E''\ 4B''\ 4d''\	(8dd\L	.
.	8b\J)	.
4E''\ 4B''\ 4d''\	4g#''/	.
4r	4r	.
=16	=16	=16
4A''\ 4c#''\	4a''/	.
4A''\ 4c#''\	4a''/	.
4r	4r	.
=17	=17	=17
2.r	2.dd\ 2.ff#\	f
=18	=18	=18
2.r	2.d/ 2.f#/	f
=19	=19	=19
2.D\ 2.F#\	2.r	.
=20	=20	=20
2.DD/ 2.FF#/	2.r	f
=21	=21	=21
*	*^	*
4D''\ 4F#''\	(8a/L	4A\	p
.	8f#/J	.	.
4D''\ 4F#''\	4d''/)	4A\	.
4r	4r	4r	.
=22	=22	=22	=22
4GG''/ 4E''/	(8b/L	4B\	.
.	8g/J	.	.
4GG''/ 4E''/	4e/)	4B\	.
4r	4r	4r	.
=23	=23	=23	=23
4AA''/ 4E''/	(8g/L	4G\	.
.	8e/J	.	.
4AA''/ 4E''/	4c#''/)	4G\	.
4r	4r	4r	.
*	*v	*v	*
=24	=24	=24
*^	*	*
4F#''/	4DD\ 4D\	4d''/	.
4F#''/	4DD\ 4D\	4d''/	.
4r	4r	4r	.
*v	*v	*	*
=25	=25	=25
2.r	2.cc#\ 2.aa\	f
=26	=26	=26
2.r	2.c#/ 2.a/	f
=27	=27	=27
2.C#\ 2.A\	2.r	f
=28	=28	=28
2.CC#/ 2.AA/	2.r	f
=29	=29	=29
*	*^	*
4C#''\ 4E''\ 4A''\	(8ee/L	4e\	p
.	8cc#/J)	.	.
4C#''\ 4E''\ 4A''\	4a/	4e\	.
4r	4r	4r	.
=30	=30	=30	=30
4D''\ 4F#''\ 4B''\	(8ff#/L	4f#\	.
.	8dd/J)	.	.
4D''\ 4F#''\ 4B''\	4b/	4f#\	.
4r	4r	4r	.
=31	=31	=31	=31
4E''\ 4B''\	(8dd/L	4d\	.
.	8b/J)	.	<
4E''\ 4B''\	4g#''/	4d\	.
4r	4r	4r	.
*	*v	*v	*
=32	=32	=32
4AA''\ 4A''\	4c#''/ 4a''/	.
4AA''\ 4A''\	4c#''/ 4a''/	.
4r	4r	.
=33!|:	=33!|:	=33!|:
*>B	*>B	*>B
(2.f#\	4r	.
.	4a'\ 4ccn'\ 4dd'\	pp
.	4a'\ 4cc'\ 4dd'\	.
=34	=34	=34
2.F#\)	4r	.
.	4a'\ 4ccn'\ 4dd'\	.
.	4a'\ 4cc'\ 4dd'\	.
=35	=35	=35
(2.FF#/	4r	.
.	4a#'\ 4dd'\	.
.	4a#'\ 4dd'\	.
=36	=36	=36
2.GG/)	4r	.
.	4b'\ 4dd'\	.
.	4b'\ 4dd'\	.
=37	=37	=37
(2.g#\	4r	.
.	4b'\ 4dd'\ 4ee'\	.
.	4b'\ 4dd'\ 4ee'\	.
=38	=38	=38
2.G#\)	4r	.
.	4b'\ 4dd'\ 4ee'\	.
.	4b'\ 4dd'\ 4ee'\	.
=39	=39	=39
(2.GG#/	4r	.
.	4b#'\ 4ee'\	<
.	4b#'\ 4ee'\	.
=40	=40	=40
2.AA/)	4r	.
.	4cc#'\ 4ee'\	.
.	4cc#'\ 4ee'\	.
=41	=41	=41
(2.a#\	4r	.
.	4cc#'\ 4ee'\ 4ff#'\	f
.	4cc#'\ 4ee'\ 4ff#'\	.
=42	=42	=42
2.A#\)	4r	.
.	4cc#'\ 4ee'\ 4ff#'\	.
.	4cc#'\ 4ee'\ 4ff#'\	.
=43	=43	=43
(2.AA#/	4r	.
.	4cc#'\ 4ff#'\	.
.	4cc#'\ 4ff#'\	.
=44	=44	=44
2.BB/)	4r	.
.	4dd'\ 4ff#'\	.
.	4dd'\ 4ff#'\	.
=45	=45	=45
(2.B\	4r	.
.	4dd'\ 4gg'\	.
.	4dd'\ 4gg'\	.
=46	=46	=46
2.cn\	4r	.
.	4dd#'\ 4gg'\	>
.	4dd#'\ 4gg'\	.
=47	=47	=47
[2.c#\	4r	.
.	[2a\ [2ee\ [2gg\	p
=48	=48	=48
2.c#;\])	2.a;\] 2.ee;\] 2.gg;\]	.
=49	=49	=49
2.r	2.dd\ 2.ff#\	p
=50	=50	=50
2.r	2.d/ 2.f#/	.
=51	=51	=51
2.D\ 2.F#\	2.r	p
=52	=52	=52
2.DD/ 2.FF#/	2.r	.
=53	=53	=53
4D''\ 4F#''\	(8a/L	.
.	8f#/J)	.
4D''\ 4F#''\	4d''/	.
4r	4r	.
=54	=54	=54
4GG''/ 4BB''/ 4E''/	(8b/L	.
.	8g/J)	.
4GG''/ 4BB''/ 4E''/	4e''/	.
4r	4r	.
=55	=55	=55
4AA''\ 4E''\ 4G''\	(8g/L	.
.	8e/J)	.
4AA''\ 4E''\ 4G''\	4c#''/	.
4r	4r	.
=56	=56	=56
4D''\ 4F#''\	4d''/	.
4D''\ 4F#''\	4d''/	.
4r	4r	.
=57	=57	=57
2.r	2.ff#\ 2.aa\ 2.ddd\	ff
=58	=58	=58
2.F#\ 2.A\ 2.d\	2.f#/ 2.a/ 2.dd/	ff
=59	=59	=59
2.FF#/ 2.AA/ 2.D/	2.r	.
=60	=60	=60
2.FFF#/ 2.AAA/ 2.DD/	2.r	.
=61	=61	=61
4F#''\ 4A''\ 4cn''\ 4d#''\	(8aa\L	p
.	8ff#\J)	.
4F#''\ 4A''\ 4c''\ 4d#''\	4dd#''\	.
4r	4r	.
=62	=62	=62
4G''\ 4B''\ 4e''\	(8bb\L	.
.	8gg\J)	.
4G''\ 4B''\ 4e''\	4ee\	.
4r	4r	.
=63	=63	=63
4A\ 4e\ 4g\	(8aa\L	.
.	8ee\J)	.
4A''\ 4e''\ 4g''\	4cc#''\	.
4r	4r	.
=64	=64	=64
4d''\ 4f#''\	(8ddn\L	<
.	8a\J)	.
4d''\	4f#''/	.
4r	4r	.
=65	=65	=65
4AA''\ 4E''\ 4G''\	(8a/L	.
.	8e/J)	.
4AA''\ 4E''\ 4G''\	4c#''/	.
4r	4r	.
=66	=66	=66
*^	*	*
4F#/	4D''\	(8d/L	.
.	.	8A/J)	.
2r	4D''\	4F#''/	.
.	4r	4r	.
=67	=67	=67	=67
(8A/L	4AAA''\ 4GG''\	2.r	.
8E/J)	.	.	.
4C#''/	4AAA''\ 4GG''\	.	.
4r	4r	.	.
=68	=68	=68	=68
4D''/	4DD''\ 4FF#''\	2.r	.
4D''/	4DD''\ 4FF#''\	.	.
4r	4r	.	.
*v	*v	*	*
=69	=69	=69
4DD''/ 4D''/	4dd''\ 4ddd''\	f
4r	4r	.
4r	4r	.
=70	=70	=70
2.r	2.r	.
=71:|!	=71:|!	=71:|!
*>C	*>C	*>C
*M3/4	*M3/4	*M3/4
8FF#\L	2.ff#^\	p
8F#\	.	.
8GG#\	.	.
8G#\	.	.
8AA#\	.	.
8A#\J	.	.
=72	=72	=72
.	(eeq/	.
8BB\L	4.dd\)	.
8B\	.	.
8C#\	.	.
8c#\	8cc#'\	.
8D\	4b'\	.
8d\J	.	.
=73	=73	=73
8E\L	4b''/	.
8e\	.	.
8C#\	4b''/	.
8c#\	.	.
8F#\	4a#''/	.
8f#\J	.	.
=74	=74	=74
8D\L	2.b\	.
8d\	.	.
8C#\	.	.
8c#\	.	.
8BB\	.	.
8B\J	.	.
=75	=75	=75
8AA#\L	2.ff#^\	.
8A#\	.	.
8BB\	.	.
8B\	.	.
8C#\	.	.
8c#\J	.	.
=76	=76	=76
.	(eeq/	.
8D\L	4.dd\)	.
8d\	.	.
8E\	.	.
8e\	8cc#'\	.
8F#\	4b'\	.
8f#\J	.	.
=77	=77	=77
8G\L	4b'\	.
8g\	.	.
8E\	4b''\	.
8e\	.	.
8A\	4cc#''\	.
8a\J	.	.
=78	=78	=78
8F#\L	2.dd^\	.
8f#\	.	.
8E\	.	.
8e\	.	.
8D\	.	.
8d\J	.	.
=79:|!	=79:|!	=79:|!
*>D	*>D	*>D
(8D\L	2.ff#^\	<
8d\	.	.
8F#\	.	.
8d\	.	.
8A\	.	.
8e\J	.	.
=80	=80	=80
.	eeq/	.
8D\L	4.dd\	.
8d\	.	.
8G\	.	.
8d\	8cc#'\	.
8B\	4b'\	.
8d\J	.	.
=81	=81	=81
8D\L	4b'\	>
8d\	.	.
8G\	4b''\	.
8d\	.	.
8B-\	4cc#''\	.
8d\J	.	.
=82	=82	=82
8D\L	2.dd\	.
8d\	.	.
8F#\	.	.
8d\	.	.
8A\	.	.
8d\J	.	.
=83	=83	=83
8C#\L	2.ff#\	.
8A#\	.	.
8E\	.	.
8A#\	.	.
8F#\	.	.
8A#\J	.	.
=84	=84	=84
.	eeq/	.
8BB\L	4.dd\	.
8B\J)	.	.
(8DD/L	.	.
8D/	8cc#'\	.
8EE/	4b'\	.
8E/J	.	.
=85	=85	=85
8FF#/L	4b'/	.
8F#/	.	.
8EE/	4b''/	.
8E/	.	.
8FF#/	4a#''/	.
8F#/J)	.	.
=86	=86	=86
8BBB/L	2.b\	.
8BB/J	.	.
(8BB\L	.	.
8B\	.	.
8C#\	.	.
8c#\J)	.	.
=87	=87	=87
(8D\L	2.ff#\	<
8d\	.	.
8E\	.	.
8e\	.	.
8F#\	.	.
8f#\J)	.	.
=88	=88	=88
.	(eeq/	.
(8G\L	4.dd\)	.
8g\	.	.
8d\	.	.
8g\	8cc#'\	.
8G\	4b'\	.
8g\J)	.	.
=89	=89	=89
(8G#\L	4b'\	.
8e#\	.	.
8d\	4b''\	.
8e#\	.	.
8G#\	4cc#''\	.
8e#\J)	.	.
=90	=90	=90
(8A\L	2.dd\	.
8f#\	.	.
8d\	.	.
8f#\	.	.
8A\	.	.
8f#\J)	.	.
=91	=91	=91
8A#\ (8c#\L	2.ff#\	>
8f#\	.	.
8B\ 8d\	.	.
8f#\	.	.
8c#\ 8e\	.	.
8f#\J)	.	.
=92	=92	=92
.	(eeq/	.
8B\ (8d\L	4.dd\)	.
8f#\	.	.
8D\	.	.
8d\	8cc#'\	.
8E\	4b'\	.
8e\J)	.	.
=93	=93	=93
(8F#\L	4b'/	p
8f#\	.	.
8E\	4b''/	.
8e\	.	.
8F#\	4a#''/	.
8f#\J)	.	.
=94	=94	=94
(8BB\L	2.b\	.
8B\	.	.
8F#\	.	.
8D\J	.	.
4BB/)	.	.
=	=	=
*-	*-	*-
!!!ENC: Craig Stuart Sapp
!!!END: 2008/02/13/
